X:1070
T:Shoals of O'Herrin, The 
C:Joe Buchanan's Scottish Tome - Page 046.1
I:046 1
R:Folk
Z:Carl Allison
L:1/4
M:4/4
K:C
"
G/ c d/4e/4 f2 | e/2d/4 c/2B/2 GF | E/ C C/2<E/2 G/2G/4 | E/G/ F/2E/2 D/ C |]
C E G2| G> G A> G | F EG2 | C E G2 |
c> d e c | d B G2 | c> d e c | d c> A |
G F E/ (C> | C6) | C E G2 | E> C F E || D2 (C2 | C2) |

